X:1
T:The Drunken Landlady
R:reel
M:4/4
L:1/8
K:Edor
A|:BE~E2 BAFA|BE~E2 BAFB|ABAF D2ED|FGAd BAFA|
|BE~E2 BAFA|BEdE BAFB|A2Bc dcde|dBAF EFGA:|
|:Beed ~e2de|~f2df efdB|ABAF D2ED|FGAd BAFA|
|Beed ~e2de|~f2df efdB|A2Bc dfec|dBAF EFGA:|